!!!COM: Palestrina, Giovanni Perluigi da
!!!OPR: Missa Jam Christus astra ascenderat
!!!OTL: Agnus I
**kern	**kern	**kern	**kern
*Ibass	*Itenor	*Icalto	*Icant
!Bassus	!Tenor	!Altus	!Cantus
*clefF4	*clefGv2	*clefG2	*clefG2
*k[b-]	*k[b-]	*k[b-]	*k[b-]
*G:dor	*G:dor	*G:dor	*G:dor
*M4/2	*M4/2	*M4/2	*M4/2
=1	=1	=1	=1
1r	0r	1r	1g
2r	.	1g	1b-
[2G	.	.	.
=2	=2	=2	=2
4G]	0r	1b-	1g
4A	.	.	.
4B-	.	.	.
4c	.	.	.
2d	.	2a	2f
2G	.	[2g	[2b-
=3	=3	=3	=3
1B-	0r	4g]	4b-]
.	.	4f	4cc
.	.	2d	1dd
1A	.	1e	.
.	.	.	2cc#
=4	=4	=4	=4
2B-	1r	1d	[0dd
2.G	.	.	.
.	1G	2r	.
4A	.	.	.
4B-	.	[2G	.
4c	.	.	.
=5	=5	=5	=5
2d	1B-	4G]	0dd]
.	.	4A	.
2G	.	4B-	.
.	.	4c	.
1B-	1G	2.d	.
.	.	4e	.
=6	=6	=6	=6
2A	2F	2f	0r
2.G	2.B-	4e-	.
.	.	4d	.
.	.	2g	.
4F	4c	.	.
2D	[2d	2f#	.
=7	=7	=7	=7
1E-	2d]	1g	1r
.	2c	.	.
2D	2d	2f	2r
2C	2G	2e-	[2g
=8	=8	=8	=8
[0G	2r	0d	4g]
.	.	.	4a
.	4G	.	4b-
.	4A	.	4cc
.	4B-	.	2dd
.	4c	.	.
.	2d	.	2g
=9	=9	=9	=9
1G]	2G	1r	1b-
.	2.d	.	.
1D	.	1d	[1a
.	4e	.	.
.	4f	.	.
.	4g	.	.
=10	=10	=10	=10
1r	2a	1f	0a]
.	2d	.	.
1D	[1f	1d	.
=11	=11	=11	=11
1F	2f]	2c	2r
.	2c	2.f	2a
1D	4d	.	2.a
.	4e	4g	.
.	4f	[2a	.
.	4d	.	4b-
=12	=12	=12	=12
2C	2e	4a]	4cc
.	.	4g	4b-
2.F	2.a	4f	4a
.	.	4e	4g
.	.	2d	2f
4G	4g	.	.
[2A	2e	2c	2cc
=13	=13	=13	=13
2A]	2f	2cc	2a
2G	2g	2b-	1dd
1A	1e	2.a	.
.	.	.	2cc#
.	.	4g	.
=14	=14	=14	=14
2D	1d	2f	2dd
2G	.	2g	2b-
1G	2r	1d	1b-
.	4d	.	.
.	4e	.	.
=15	=15	=15	=15
1F	4f	0r	2a
.	4g	.	.
.	2a	.	2cc
1B-	2g	.	2b-
.	[2f	.	2a
=16	=16	=16	=16
1c	4f]	2r	2.g
.	4e	.	.
.	2e	2g	.
.	.	.	4a
2.G	1d	1g	4b-
.	.	.	4cc
.	.	.	[2dd
4A	.	.	.
=17	=17	=17	=17
2B-	0r	1f	2dd]
2A	.	.	1cc
1G	.	1b-	.
.	.	.	[2b-
=18	=18	=18	=18
1F	1r	1.cc	2b-]
.	.	.	2a
1G	1d	.	1g
.	.	2b-	.
=19	=19	=19	=19
2.D	1d	2a	1f
.	.	1b-	.
4E	.	.	.
1F	1c	.	1r
.	.	4a	.
.	.	4g	.
=20	=20	=20	=20
2F	1f	4a	1r
.	.	4b-	.
2A	.	2.cc	.
1G	[1g	.	1dd
.	.	4b-	.
.	.	2b-	.
=21	=21	=21	=21
1D	2g]	[0a	1dd
.	2f	.	.
2.A	2e	.	1cc
.	[2f	.	.
4G	.	.	.
=22	=22	=22	=22
2.F	4f]	1a]	1ff
.	4e	.	.
.	1d	.	.
8E	.	.	.
8D	.	.	.
1E	.	2r	[1gg
.	2c#	2g	.
=23	=23	=23	=23
1D	2d	2b-	2gg]
.	2d	2.a	2ff
1r	2c#	.	2ee
.	.	4g	.
.	2d	4f	[2ff
.	.	4e	.
=24	=24	=24	=24
0r	1B-	1d	4ff]
.	.	.	4ee
.	.	.	1dd
.	1A	1e	.
.	.	.	2cc#
=25	=25	=25	=25
1.G	2r	1d	4dd
.	.	.	4cc
.	1d	.	4b
.	.	.	4a
.	.	2r	1b
2G	2d	[2g	.
=26	=26	=26	=26
1.c	1.e-	2g]	1cc
.	.	2g	.
.	.	2a	1r
2B-	2d	2g	.
=27	=27	=27	=27
2.A	1c	2.f	0r
4G	.	4e-	.
2F	2A	4d	.
.	.	4c	.
[2G	[2B-	[2e-	.
=28	=28	=28	=28
4G]	4B-]	4e-]	0r
4D	4A	4d	.
2F	1A	2.d	.
1E-	.	.	.
.	.	4c	.
.	2G	[2g	.
=29	=29	=29	=29
1D	2A	2g]	1.dd
.	2A	2f#	.
1G	1B	1g	.
.	.	.	2dd
=30	=30	=30	=30
2C	1c	2r	1.ee-
1c	.	1g	.
.	1G	.	.
2B-	.	2g	2dd
=31	=31	=31	=31
4A	1r	1.a	1cc
4G	.	.	.
4F	.	.	.
4E	.	.	.
2F	[1d	.	2a
2G	.	2g	[2b-
=32	=32	=32	=32
1D	2d]	1f	4b-]
.	.	.	4a
.	2d	.	1dd
1r	[1e-	[1g	.
.	.	.	2cc
=33	=33	=33	=33
1r	2e-]	2g]	1b-
.	2d	2f	.
1C	1c	1e-	2a
.	.	.	[2g
=34	=34	=34	=34
1D	2A	2d	2g]
.	1B-	2d	2f
1E-	.	2G	2b-
.	4A	2g	2cc
.	4G	.	.
=35	=35	=35	=35
1D	2.A	2f	1dd
.	.	2.a	.
.	4B-	.	.
1C	2.c	.	1ee-
.	.	4g	.
.	.	[2g	.
.	4B-	.	.
=36	=36	=36	=36
0D	0A	2g]	0dd
.	.	4f#	.
.	.	4e	.
.	.	1f#	.
=37	=37	=37	=37
0G	0G	0g	0b
==	==	==	==
*-	*-	*-	*-
!!!CDT: 1525/^1526/-1594/2/2
!!!OCY: Italia
!!!AGN: Mass (Paraphrase)
!!!AST: renaissance, vocal
!!!ASW: Hymn
!!!PWK: Masses, Book 5
!!!RNB: Cadence finals: D
!!!YOR: Le Opere Complete, v. 15, p. 20
!!!YOO: Rome, Italy: Fratelli Scalera
!!!END: 1992//
!!!EED: John Miller
!!!YEC: Copyright 2000, John Miller
!!!YEN: United States of America
!!!YEM: Rights to all derivative electronic formats reserved.
!!!YEM: Refer to licensing agreement for further details.
!!!YEM: This file must be accompanied by the licensing agreement.
!!!YEM: A copy of the licensing agreement may be found at http://www.music-cog.ohio-state.edu/HumdrumDatabases/Palestrina/license.txt
!!!EMD: converted to Humdrum by Bret Aarden
